svgs/sharp-solid/rectangle-list.svg

<svg xmlns="http://www.w3.org/2000/svg" viewBox="0 0 576 512"><!--! Font Awesome Pro 6.6.0 by @fontawesome - https://fontawesome.com License - https://fontawesome.com/license (Commercial License) Copyright 2024 Fonticons, Inc. --><path d="M0 32l576 0 0 448L0 480 0 32zM128 288a32 32 0 1 0 0-64 32 32 0 1 0 0 64zm32-128a32 32 0 1 0 -64 0 32 32 0 1 0 64 0zM128 384a32 32 0 1 0 0-64 32 32 0 1 0 0 64zm96-248l-24 0 0 48 24 0 224 0 24 0 0-48-24 0-224 0zm0 96l-24 0 0 48 24 0 224 0 24 0 0-48-24 0-224 0zm0 96l-24 0 0 48 24 0 224 0 24 0 0-48-24 0-224 0z"/></svg>

<svg xmlns="http://www.w3.org/2000/svg" viewBox="0 0 576 512"><!--! Font Awesome Pro 6.4.2 by @fontawesome - https://fontawesome.com License - https://fontawesome.com/license (Commercial License) Copyright 2023 Fonticons, Inc. --><path d="M0 32H576V480H0V32zM128 288a32 32 0 1 0 0-64 32 32 0 1 0 0 64zm32-128a32 32 0 1 0 -64 0 32 32 0 1 0 64 0zM128 384a32 32 0 1 0 0-64 32 32 0 1 0 0 64zm96-248H200v48h24H448h24V136H448 224zm0 96H200v48h24H448h24V232H448 224zm0 96H200v48h24H448h24V328H448 224z"/></svg>
